X:1
T:Title
%%score { ( 1 3 ) | ( 2 4 ) }
L:1/8
M:6/4
K:Bb
V:1 treble nm="Grand Piano"
V:3 treble 
V:2 bass 
V:4 bass 
V:1
 z6 z4[Q:1/4=117] [B,D][CE] | [DF]2 [_D=E]2 [=DF]2 [DB]2 [Ec]2 [Fd]2 | c6 G4 B2 | %3
 A2 G2 F2 E2 A2 G2 | [DF]6- [DF]4 [B,D][CE] | [DF]2 [_D=E]2 [=DF]2 [DB]2 [Ec]2 [Fd]2 | c6 G4 B2 | %7
 A2 G2 F2 A2 B2 c2 |[M:5/4] [DB]2- [DB]2- [DB]6 |[M:1/4] [DF]2 | %10
[M:6/4] [DF]2 [EG]2 [DF]2 [B,D]2 [DF]2 [DB]2 |[M:5/4] A2- A2- A6 |[M:1/4] F2 | %13
[M:6/4] F2 G2 F2 F2 A2 c2 | B12 | [Fd]2 [Ge]2 [Fd]2 G4 GG | c2 d2 c2 B4 G2 | %17
[M:7/4] F2 B2 [Ge]2 d2 F3 c3 |[M:6/4] B12 |] %19
V:2
 z6 z4 [B,,F,][B,,F,] | [B,,B,]2 [B,,B,]2 [B,,B,]2 [B,,B,]2 [B,,B,]2 [B,,B,]2 | %2
 [E,G,E]6 [E,B,E]4 [E,G,E]2 | [F,CE]2 [F,B,E]2 [F,A,E]2 [F,A,C]2 [F,A,C]2 [F,A,_D]2 | %4
 [B,,B,]6- [B,,B,]4 [B,,F,][B,,F,] | [B,,B,]2 [B,,B,]2 [B,,B,]2 [B,,B,]2 [B,,B,]2 [B,,B,]2 | %6
 [E,G,E]6 [E,B,E]4 [E,G,E]2 | [F,CE]2 [F,B,E]2 [F,A,E]2 [F,CE]2 [F,B,D]2 [F,A,E]2 | %8
[M:5/4] [B,,B,]2- [B,,B,]2- [B,,B,]6 |[M:1/4] [B,,B,]2 | %10
[M:6/4] [B,,B,]2 [B,,B,]2 [B,,B,]2 [B,,F,]2 [B,,B,]2 [B,,B,]2 |[M:5/4] [F,CE]4 [F,C]2 [F,C]4 | %12
[M:1/4] [F,A,E]2 |[M:6/4] [F,A,E]2 [F,B,E]2 [F,A,E]2 [F,A,E]2 [F,CE]2 [F,A,E]2 | %14
 z4 G,2 F,4 [B,,B,][B,,B,] | [B,,B,]2 [B,,B,]2 [B,,B,]2 [E,B,E]4 [E,B,E][E,B,E] | %16
 [F,A,E]2 [F,A,F]2 [^F,A,E]2 [G,B,D]4 [E,B,E]2 | %17
[M:7/4] [F,B,D]2 [F,B,D]2 [E,B,]2 [F,B,F]2 [F,B,D]3 [F,A,E]3 |[M:6/4] z2 F,2 G,2 F,6 |] %19
V:3
 x12 | x12 | x12 | x12 | x12 | x12 | x12 | x12 |[M:5/4] x10 |[M:1/4] x2 |[M:6/4] x12 | %11
[M:5/4] z4 E2 E4 |[M:1/4] x2 |[M:6/4] x12 | [B,D]4 E2 D4 [DF][DF] | x12 | x12 |[M:7/4] x14 | %18
[M:6/4] [B,D]2 D2 E2 D6 |] %19
V:4
 x12 | x12 | x12 | x12 | x12 | x12 | x12 | x12 |[M:5/4] x10 |[M:1/4] x2 |[M:6/4] x12 |[M:5/4] x10 | %12
[M:1/4] x2 |[M:6/4] x12 | B,,12 | x12 | x12 |[M:7/4] x14 |[M:6/4] B,,12 |] %19

